!!!!SEGMENT: pl-gd--ee-1638--003-003_marenzio-luca--madrigali-a-quatro-voci-veggo-dolce-mio-bene.krn
!!!cenid: 15xx:977
!!!COM: Marenzio, Luca
!!!COM-rismID:
!!!CDT: ~1553-1599/08/22
!!!CNT: Italian
!!!GTL: Madrigali a quatro voci
!!!OTL: Veggo dolce mio bene
!!!OMV: 003
!!!PDT: 1587
!!!AGN:
!!!SMS-siglum: PL-GD
!!!SMS-shelfmark: Ee 1638
!!!SMS-variant:
!!!SMS-altvar:
!!!SMS-shelfwork: 003-003 G
!!!NIFC-rismSourceID: 990039322
!!!NIFC-islandoraID: pl-gd:57883
!!!URL-pdf-islandora: https://repozytorium.nifc.pl/islandora/object/pl-gd%3A57883/datastream/PDF/view
!!!URL-scan: https://polish.musicsources.pl/pl/lokalizacje/galeria/klocki-introligatorskie/655 @EN{Scan on Polish Music Herritage in Open Access Website} @PL{Skany w portalu Dziedzictwo Muzyki Polskiej w otwartym dostępie}
!!!ONB-nifc: UWAGA: zbiór na stronach: Canto: s. 637-653, Alto: s. do 486-501, Tenore: s. do 334-349, Bassus: s. do 182-197. Uwaga: utwory podzielone wg tytułów w spisach treści dostępnych na końcu każdej księgi głosowej.
!!!AIN: 1 alto 1 bass 1 soprn 1 tenor
!!!key:
**kern	**text	**kern	**text	**kern	**text	**kern	**text
*part4	*part4	*part3	*part3	*part2	*part2	*part1	*part1
*staff4	*staff4	*staff3	*staff3	*staff2	*staff2	*staff1	*staff1
*I"BASSO	*	*I"TENORE	*	*I"ALTO	*	*I"CANTO	*
*I'B	*	*I'T	*	*I'A	*	*I'S	*
*Ibass	*	*Itenor	*	*Ialto	*	*Isoprn	*
*ICvox	*	*ICvox	*	*ICvox	*	*ICvox	*
*IG	*	*	*	*	*	*	*
*clefF4	*	*clefC4	*	*clefC3	*	*clefC1	*
*k[b-]	*	*k[b-]	*	*k[b-]	*	*k[b-]	*
*d:	*	*d:	*	*d:	*	*d:	*
*M4/4	*	*M4/4	*	*M4/4	*	*M4/4	*
*met(C)	*	*met(C)	*	*met(C)	*	*met(C)	*
=1-	=1-	=1-	=1-	=1-	=1-	=1-	=1-
1D	VEg-	2r	.	1f	VEg-	1r	.
.	.	1d\	VEg-	.	.	.	.
=2-	=2-	=2-	=2-	=2-	=2-	=2-	=2-
1AA	-go	.	.	1e	-go	1a	VEg-
.	.	2c#X\	-go	.	.	.	.
=3-	=3-	=3-	=3-	=3-	=3-	=3-	=3-
4r	.	4r	.	4r	.	4e/	-go
4.A\	dol-	4.c#X\	dol-	4.e\	dol-	4.a\	dol-
8A\	-ce	8c#\	-ce	8e\	-ce	8a\	-ce
4F#X\	mio	4d\	mio	4A/	mio	4a\	mio
=4-	=4-	=4-	=4-	=4-	=4-	=4-	=4-
1G	be-	1B-	be-	1d	be-	1g	be-
=5-	=5-	=5-	=5-	=5-	=5-	=5-	=5-
4D/	-ne	4A/	-ne	2d\	-ne	2f#X/	-ne
4D/	Nel	4A/	Nel	.	.	.	.
4G\	vol-	4B-\	vol-	2r	.	2r	.
8Fny\	.	8A/	.	.	.	.	.
8E\	.	8G/	.	.	.	.	.
=6-	=6-	=6-	=6-	=6-	=6-	=6-	=6-
4F\	.	4A/	.	4r	.	4r	.
!	!	!LO:SIC:v:t=custos A	!	!	!	!	!
4D/	-ger	4F/	-ger	4d\	Nel	4a\	Nel
!LO:SIC:v:t=custos D	!	!LO:LB:g=original	!	!	!	!	!
2r	.	2r	.	4g\	vol-	4b-\	vol-
!LO:LB:g=original	!	!	!	!	!	!	!
.	.	.	.	8f\	.	8a\	.
.	.	.	.	8e\	.	8g\	.
=7-	=7-	=7-	=7-	=7-	=7-	=7-	=7-
4r	.	4r	.	4f\	.	4a\	.
4D/	Nel	4A/	Nel	4d\	-ger	4fny/	-ger
!	!	!	!	!LO:SIC:v:t=custos f	!	!	!
4G\	vol-	4B-\	vol-	2r	.	2r	.
!	!	!	!	!LO:LB:g=original	!	!	!
8F\	.	8A/	.	.	.	.	.
8E\	.	8G/	.	.	.	.	.
=8-	=8-	=8-	=8-	=8-	=8-	=8-	=8-
!	!	!	!	!	!	!LO:SIC:v:t=custos b-	!
4F\	.	4A/	.	1r	.	1r	.
!	!	!	!	!	!	!LO:LB:g=original	!
4D/	-ger	4F/	ger	.	.	.	.
4G\	de	4B-\	de	.	.	.	.
4A\	voſ-	4cny\	voſ-	.	.	.	.
=9-	=9-	=9-	=9-	=9-	=9-	=9-	=9-
1B-	-tr'oc-	1d	-tr'oc-	4r	.	2r	.
.	.	.	.	2f\	vn	.	.
.	.	.	.	.	.	2b-\	vn
.	.	.	.	4.f\	viu-	.	.
=10-	=10-	=10-	=10-	=10-	=10-	=10-	=10-
2B-\	-chi	1d	-chi	.	.	4.b-\	viu-
.	.	.	.	8d\	-o	.	.
.	.	.	.	4.g\	lu-	.	.
.	.	.	.	.	.	8g\	-o
2r	.	.	.	.	.	4.a\	lu-
.	.	.	.	8f\	.	.	.
.	.	.	.	2f\	.	.	.
.	.	.	.	.	.	8b-\	.
=11-	=11-	=11-	=11-	=11-	=11-	=11-	=11-
2r	.	4r	.	.	.	2g/	.
.	.	2c\	vn	4e\	.	.	.
2F\	vn	.	.	2f\	me	4f/	-me
.	.	4.c\	viu-	.	.	4a\	vn
=12-	=12-	=12-	=12-	=12-	=12-	=12-	=12-
4.F\	viu-	.	.	1r	.	4.a\	viu-
.	.	8A\	-o	.	.	.	.
.	.	4.d\	lu-	.	.	.	.
8D\	-o	.	.	.	.	8f/	-o
4.E\	lu-	.	.	.	.	4.g/	lu-
.	.	8c\	.	.	.	.	.
.	.	2c\	.	.	.	.	.
8F\	.	.	.	.	.	8a\	.
=13-	=13-	=13-	=13-	=13-	=13-	=13-	=13-
2D/	.	.	.	1r	.	2f/	.
!	!	!LO:N:acc=#	!	!	!	!	!
.	.	4Bn\	.	.	.	.	.
2C/	me	2c\	-me	.	.	2e/	-me
=14-	=14-	=14-	=14-	=14-	=14-	=14-	=14-
1G	Che	2r	.	2r	.	2r	.
.	.	2B-y\	Che	2d\	Che	2g/	Che
=15-	=15-	=15-	=15-	=15-	=15-	=15-	=15-
!	!	!LO:SIC:v:t=custos G	!	!	!	!	!
1.G	par	1B-	par	1d	par	1.g	par
!	!	!LO:LB:g=original	!	!	!	!	!
=16-	=16-	=16-	=16-	=16-	=16-	=16-	=16-
.	.	2G/	che	2B-/	che	.	.
!LO:SIC:v:t=custos E	!	!	!	!	!	!	!
2D/	che	1B-\	mi	1d\	mi	2f/	che
!LO:LB:g=original	!	!	!	!	!	!	!
=17-	=17-	=17-	=17-	=17-	=17-	=17-	=17-
2E\	mi	.	.	.	.	2g/	mi
2F\	con-	1A\	con-	1c\	con-	1a\	con-
=18-	=18-	=18-	=18-	=18-	=18-	=18-	=18-
1D	ſu-	.	.	.	.	.	.
.	.	1G/	ſu-	1B-/	ſu-	1d/	ſu-
=19-	=19-	=19-	=19-	=19-	=19-	=19-	=19-
1D	-me	.	.	.	.	.	.
!	!	!	!	!	!	!LO:SIC:v:t=custos e	!
.	.	2F#X/	-me	2A/	-me	2d/	-me
!	!	!	!	!	!	!LO:LB:g=original	!
=20-	=20-	=20-	=20-	=20-	=20-	=20-	=20-
2C/	Di	2G/	Di	2r	.	2e/	Di
2C/	ſo-	2G/	ſo-	2.c/	Di	2e/	ſo-
=21-	=21-	=21-	=21-	=21-	=21-	=21-	=21-
1C	-uer-	1G	-uer-	.	.	1.e	-uer-
.	.	.	.	4c/	ſo-	.	.
.	.	.	.	1c\	-uer-	.	.
=22-	=22-	=22-	=22-	=22-	=22-	=22-	=22-
1AA	-chia	1A	-chia	.	.	.	.
.	.	.	.	1d\	-chia	1f/	-chia
=23-	=23-	=23-	=23-	=23-	=23-	=23-	=23-
1AA	dol-	1A	dol-	.	.	.	.
!	!	!	!	!LO:SIC:v:t=custos d	!	!	!
.	.	.	.	2c#X/	dol-	2e/	dol-
!	!	!	!	!LO:LB:g=original	!	!	!
=24-	=24-	=24-	=24-	=24-	=24-	=24-	=24-
!	!	!LO:N:acc=#	!	!	!	!	!
1GG	-cez-	1Bn	-cez-	1d	-cez-	1g	-cez-
=25-	=25-	=25-	=25-	=25-	=25-	=25-	=25-
1GG	-za	1B-y	-za	1d	-za	1g	-za
=26-	=26-	=26-	=26-	=26-	=26-	=26-	=26-
4r	.	4r	.	4r	.	4r	.
4C/	e	4c\	e	4e\	e	4g/	e
4F\	chieg-	4c\	chieg-	4f\	chieg-	4a\	chieg-
4D/	-gio	4d\	-gio	4f#X\	-gio	4a\	-gio
=27-	=27-	=27-	=27-	=27-	=27-	=27-	=27-
2G\	a-	4.d\	ai-	2g\	a-	2b-\	a-
.	.	8e\	.	.	.	.	.
!	!	!LO:SIC:v:t=custos B-	!	!	!	!	!
4F\	-ita	2f\	.	4cny/	-ita	4a\	-ita
!	!	!LO:LB:g=original	!	!	!	!	!
*	*ij	*	*	*	*	*	*ij
4D/	e	.	.	2d\	e	4a\	e
=28-	=28-	=28-	=28-	=28-	=28-	=28-	=28-
4G\	chieg-	4B-\	ta	.	.	4b-\	chieg-
4F\	-gio	4f\	e	2a\	chieg-	4cc\	-gio
2B-\	a-	4.d\	chieg-	.	.	1dd\	a-
.	.	.	.	4g\	-gio	.	.
.	.	8e\	-gio	.	.	.	.
=29-	=29-	=29-	=29-	=29-	=29-	=29-	=29-
1A	-ita	2f\	a-	2a\	a-	.	.
.	.	2e\	-ita	1A/	ita	2cc#X\	-ita
*	*Xij	*	*	*	*	*	*Xij
=30-	=30-	=30-	=30-	=30-	=30-	=30-	=30-
1.D	Quaſi	1r	.	.	.	1r	.
.	.	.	.	1fny\	Qua-	.	.
=31-	=31-	=31-	=31-	=31-	=31-	=31-	=31-
.	.	1r	.	.	.	1.a	Qua-
!LO:SIC:v:t=custos F	!	!	!	!	!	!	!
2E\	al	.	.	4e\	.	.	.
!LO:LB:g=original	!	!	!	!	!	!	!
.	.	.	.	4d\	.	.	.
=32-	=32-	=32-	=32-	=32-	=32-	=32-	=32-
1F	fin	1.A	Quaſi-	1c	ſi	.	.
.	.	.	.	.	.	2b-\	-ſi
=33-	=33-	=33-	=33-	=33-	=33-	=33-	=33-
2FF/	de	.	.	1f	al	1ccny	al
2GG/	mia	2B-\	al	.	.	.	.
=34-	=34-	=34-	=34-	=34-	=34-	=34-	=34-
2.AA/	vi-	1c	fin	1e	fin	2cc\	fin
!	!	!	!	!	!	!LO:SIC:v:t=custos g	!
.	.	.	.	.	.	2a\	de
!	!	!	!	!	!	!LO:LB:g=original	!
4BB-/	.	.	.	.	.	.	.
=35-	=35-	=35-	=35-	=35-	=35-	=35-	=35-
0C	.	2c\	de	2e\	de	2g/	mia
!	!	!LO:LB:g=original	!	!	!	!	!
.	.	2A/	mia	2c/	mia	2.f/	vi-
=36-	=36-	=36-	=36-	=36-	=36-	=36-	=36-
.	.	1G	vi-	1c	vi-	.	.
.	.	.	.	.	.	8e/	.
.	.	.	.	.	.	8d/	.
.	.	.	.	.	.	2e/	.
=37-	=37-	=37-	=37-	=37-	=37-	=37-	=37-
!	!	!	!	!LO:SIC:v:t=custos f	!	!	!
4FF/	-ta	4Fny/	ta	2c/	-ta	2f/	-ta
!	!	!	!	!LO:LB:g=original	!	!	!
4F\	Che	4A/	Che	.	.	.	.
4D/	no	4B-\	non	2r	.	2r	.
4E\	mi	4G/	mi	.	.	.	.
=38-	=38-	=38-	=38-	=38-	=38-	=38-	=38-
4F\	ſia'l	4A/	ſia'l	4r	.	4r	.
4F\	mo-	4c\	mo-	4f\	Che	4a\	Che
!	!	!LO:SIC:v:t=custos A	!	!	!	!	!
2G\	-ri-	2B-\	-ri-	4d\	non	4b-\	non
.	.	.	.	4e\	mi	4g/	mi
=39-	=39-	=39-	=39-	=39-	=39-	=39-	=39-
4F\	re	4A/	-re	4f\	ſia'l	4a\	ſia'l
4F\	Si	4A/	Si	4c/	mo-	4cc\	mo-
4D/	to-	4F/	to-	2d\	-ri-	2b-\	-ri-
4E\	-ſto	4G/	-ſto	.	.	.	.
=40-	=40-	=40-	=40-	=40-	=40-	=40-	=40-
2F\	fin	2A/	fin	4c/	re	4a\	-re
.	.	.	.	4c/	Si	4a\	Si
2r	.	2r	.	4d\	to-	4f/	to-
.	.	.	.	4e\	-ſto	4g/	-ſto
=41-	=41-	=41-	=41-	=41-	=41-	=41-	=41-
4r	.	4r	.	2f\	fin	2a\	fin
4F\	Si	4A/	Si	.	.	.	.
4D/	to-	4F/	to-	2r	.	2r	.
!LO:SIC:v:t=custos F	!	!	!	!	!	!	!
4E\	-ſto	4G/	-ſto	.	.	.	.
!LO:LB:g=original	!	!	!	!	!	!	!
=42-	=42-	=42-	=42-	=42-	=42-	=42-	=42-
2F\	fin	2A/	fin	2r	.	2r	.
2BB-/	del	2B-\	del	2d\	del	2f/	del
=43-	=43-	=43-	=43-	=43-	=43-	=43-	=43-
1BB-	mio	1B-	mio	1d	mio	1f	mio
=44-	=44-	=44-	=44-	=44-	=44-	=44-	=44-
!	!	!	!	!	!	!LO:SIC:v:t=custos f	!
1E-X	dol-	1B-	dol-	1e-X	dol-	1g	dol-
!	!	!	!	!	!	!LO:LB:g=original	!
=45-	=45-	=45-	=45-	=45-	=45-	=45-	=45-
1BB-	-ce	1B-	-ce	1d	-ce	2f/	-ce
.	.	.	.	.	.	1b-\	lan-
=46-	=46-	=46-	=46-	=46-	=46-	=46-	=46-
1D	lan-	1F	lan-	1f	lan-	.	.
.	.	.	.	.	.	1a\	-gu-
=47-	=47-	=47-	=47-	=47-	=47-	=47-	=47-
0AA	-gui-	0A	-gu-	2eny\	-gu-	.	.
.	.	.	.	2.d\	-i-	4g/	.
.	.	.	.	.	.	4f/	.
=48-	=48-	=48-	=48-	=48-	=48-	=48-	=48-
.	.	.	.	.	.	1e	-i
.	.	.	.	8c/	.	.	.
!	!	!	!	!LO:N:acc=#	!	!	!
.	.	.	.	8Bn/	.	.	.
!	!	!	!	!LO:SIC:v:t=custos d	!	!	!
.	.	.	.	2c#X/	.	.	.
!	!	!	!	!LO:LB:g=original	!	!	!
=49-	=49-	=49-	=49-	=49-	=49-	=49-	=49-
4D/	-re	4A/	re	4d\	-re	4f/	re
!	!	!	!	!LO:N:acc=#	!	!	!
4GG/	e	4G/	e	4Bn/	e	4d/	e
4C/	chieg-	4G/	chieg-	4cny/	chieg-	4e/	chieg-
4BB-/	-gio	2B-\	-gio	4d\	-gio	4f/	-gio
=50-	=50-	=50-	=50-	=50-	=50-	=50-	=50-
2E-X\	a-	.	.	2G/	a-	2g/	a-
.	.	4c\	a-	.	.	.	.
!	!	!LO:SIC:v:t=custos f	!	!	!	!	!
4D/	-ita	2d\	ita	4A/	-ita	4f/	-ita
!	!	!LO:LB:g=original	!	!	!	!	!
4D/	e	.	.	4f\	e	4a\	e
=51-	=51-	=51-	=51-	=51-	=51-	=51-	=51-
4G\	chieg-	4r	.	4d\	chieg-	4b-\	chieg-
4F\	-gio	4f\	e	2a\	-gio	4cc\	-gio
2B-\	a-	4.d\	chieg-	.	.	1dd\	a-
.	.	.	.	4g\	a-	.	.
.	.	8e\	-gio	.	.	.	.
=52-	=52-	=52-	=52-	=52-	=52-	=52-	=52-
1A	-ita	2f\	a-	2a\	ita	.	.
.	.	2e\	ita	1A/	Quaſi	2cc#X\	-ita
=53-	=53-	=53-	=53-	=53-	=53-	=53-	=53-
1.D	Quaſi	1r	.	.	.	1r	.
.	.	.	.	1f\	al	.	.
=54-	=54-	=54-	=54-	=54-	=54-	=54-	=54-
.	.	1r	.	.	.	1.a	Quaſi
2Eny\	al	.	.	4e\	.	.	.
.	.	.	.	4d\	.	.	.
=55-	=55-	=55-	=55-	=55-	=55-	=55-	=55-
!LO:SIC:v:t=custos FF	!	!	!	!	!	!	!
1F	ſin	1.A	Quaſi	1c	.	.	.
!LO:LB:g=original	!	!	!	!	!	!	!
.	.	.	.	.	.	2b-\	al
=56-	=56-	=56-	=56-	=56-	=56-	=56-	=56-
2FF/	de	.	.	1f	ſin	1ccny	ſin
2GG/	mia	2B-\	al	.	.	.	.
=57-	=57-	=57-	=57-	=57-	=57-	=57-	=57-
2.AA/	vi-	1c	ſin	1.e	de	2cc\	de
!	!	!	!	!	!	!LO:SIC:v:t=custos g	!
.	.	.	.	.	.	2a\	mia
!	!	!	!	!	!	!LO:LB:g=original	!
4BB-/	.	.	.	.	.	.	.
=58-	=58-	=58-	=58-	=58-	=58-	=58-	=58-
0C	.	2c\	de	.	.	2g/	vi-
.	.	2A/	mia	2c/	mia	2.f/	.
=59-	=59-	=59-	=59-	=59-	=59-	=59-	=59-
.	.	1G	vi-	1d	vi-	.	.
.	.	.	.	.	.	8e/	.
.	.	.	.	.	.	8d/	.
.	.	.	.	.	.	2e/	.
=60-	=60-	=60-	=60-	=60-	=60-	=60-	=60-
!	!	!	!	!LO:SIC:v:t=custos f	!	!	!
4FF/	ta	4F/	ta	2c/	ta	2f/	-ta
!	!	!	!	!LO:LB:g=original	!	!	!
4F\	Che	4A/	Che	.	.	.	.
4D/	non	4B-\	non	2r	.	2r	.
4E\	mi	4G/	mi	.	.	.	.
=61-	=61-	=61-	=61-	=61-	=61-	=61-	=61-
4F\	ſia'l	4A/	ſia'l	4r	.	4r	.
4F\	mo-	4c\	mo-	4f\	Che	4a\	Che
!	!	!LO:SIC:v:t=custos A	!	!	!	!	!
2G\	-ri-	2B-\	ri-	4d\	no'	4b-\	non
!	!	!LO:LB:g=original	!	!	!	!	!
.	.	.	.	4e\	mi	4g/	mi
=62-	=62-	=62-	=62-	=62-	=62-	=62-	=62-
4F\	-re	4A/	-re	4f\	ſia'l	4a\	ſia'l
4F\	Si	4A/	Si	4c/	mo-	4cc\	mo-
4D/	to-	4F/	to-	2d\	-ri-	2b-\	-ri-
4E\	-ſto	4G/	-ſto	.	.	.	.
=63-	=63-	=63-	=63-	=63-	=63-	=63-	=63-
2F\	fin	2A/	fin	4c/	-re	4a\	-re
.	.	.	.	4c/	Si	4a\	Si
2r	.	2r	.	4d\	to-	4f/	to-
.	.	.	.	4e\	-ſto	4g/	-ſto
=64-	=64-	=64-	=64-	=64-	=64-	=64-	=64-
4r	.	4r	.	2f\	fin	2a\	fin
4F\	Si	4A/	Si	.	.	.	.
4D/	to-	4F/	to-	2r	.	2r	.
!LO:SIC:v:t=custos F	!	!	!	!	!	!	!
4E\	-ſto	4G/	-ſto	.	.	.	.
!LO:LB:g=original	!	!	!	!	!	!	!
=65-	=65-	=65-	=65-	=65-	=65-	=65-	=65-
2F\	fin	2A/	fin	2r	.	2r	.
2BB-/	del	2B-\	del	2d\	del	2f/	del
=66-	=66-	=66-	=66-	=66-	=66-	=66-	=66-
1BB-	mio	1B-	mio	1d	mio	1f	mio
=67-	=67-	=67-	=67-	=67-	=67-	=67-	=67-
!	!	!	!	!	!	!LO:SIC:v:t=custos f	!
1E-X	dol-	1B-	dol-	1e-X	dol-	1g	dol-
!	!	!	!	!	!	!LO:LB:g=original	!
=68-	=68-	=68-	=68-	=68-	=68-	=68-	=68-
1BB-	-ce	1B-	-ce	1d	-ce	2f/	-ce
.	.	.	.	.	.	1b-\	lan-
=69-	=69-	=69-	=69-	=69-	=69-	=69-	=69-
1D	lan-	1F	lan-	1f	lan-	.	.
.	.	.	.	.	.	1a\	-gu-
=70-	=70-	=70-	=70-	=70-	=70-	=70-	=70-
0AA	-gu-	0A	-gu-	2eny\	-gu-	.	.
.	.	.	.	2.d\	-i-	4g/	-i-
.	.	.	.	.	.	4f/	.
=71-	=71-	=71-	=71-	=71-	=71-	=71-	=71-
.	.	.	.	.	.	1e	.
.	.	.	.	8c#X/	.	.	.
!	!	!	!	!LO:N:acc=#	!	!	!
.	.	.	.	8Bn/	.	.	.
.	.	.	.	2c#X/	.	.	.
=72-	=72-	=72-	=72-	=72-	=72-	=72-	=72-
00D	-ire.	00A	-ire.	00d	-re.	00f#X	-re.
=73-	=73-	=73-	=73-	=73-	=73-	=73-	=73-
.	.	.	.	.	.	.	.
=74-	=74-	=74-	=74-	=74-	=74-	=74-	=74-
.	.	.	.	.	.	.	.
=75-	=75-	=75-	=75-	=75-	=75-	=75-	=75-
.	.	.	.	.	.	.	.
=-	=-	=-	=-	=-	=-	=-	=-
*-	*-	*-	*-	*-	*-	*-	*-
!!!system-decoration: [(s1,s2,s3,s4)]
!!!ENC: Marta Opryszak
!!!END: 2022-06-25
!!!ENC: Julita Ruszuk
!!!END: 2022-07-23
